usr/share/icons/biglinux-icons-material-dark/22/actions/map-globe.svg

<svg xmlns="http://www.w3.org/2000/svg" viewBox="0 0 22 22">
  <defs id="defs3051">
    <style type="text/css" id="current-color-scheme">
      .ColorScheme-Text {
        color:#dedede;
      }
      </style>
  </defs>
 <path 
    style="fill:currentColor;fill-opacity:1;stroke:none" 
    d="M 11.117188 3 A 8.0000029 8.0000095 0 0 0 5.34375 5.34375 A 8.0000029 8.0000095 0 0 0 5.34375 16.65625 A 8.0000029 8.0000095 0 0 0 16.65625 16.65625 A 8.0000029 8.0000095 0 0 0 16.65625 5.34375 A 8.0000029 8.0000095 0 0 0 11.117188 3 z M 10.898438 4 A 7 7 0 0 1 15.578125 5.7148438 L 14.173828 7.1191406 A 8 5 45 0 0 8.75 4.3769531 A 7 7 0 0 1 10.898438 4 z M 7.8710938 5.3066406 A 7 4 45 0 1 13.464844 7.828125 L 11 10.292969 L 6.4492188 5.7421875 A 7 4 45 0 1 7.8710938 5.3066406 z M 16.291016 6.4160156 A 7 7 0 0 1 17.626953 13.226562 A 8 5 45 0 0 14.876953 7.8300781 L 16.291016 6.4160156 z M 5.7402344 6.4472656 L 10.292969 11 L 7.8261719 13.466797 A 7 4 45 0 1 5.7402344 6.4472656 z M 14.173828 8.5332031 A 7 4 45 0 1 16.259766 15.552734 L 11.707031 11 L 14.173828 8.5332031 z M 4.3730469 8.7734375 A 8 5 45 0 0 7.1230469 14.169922 L 5.7089844 15.583984 A 7 7 0 0 1 4.3730469 8.7734375 z M 11 11.707031 L 15.550781 16.257812 A 7 4 45 0 1 8.5351562 14.171875 L 11 11.707031 z M 7.8261719 14.880859 A 8 5 45 0 0 13.25 17.623047 A 7 7 0 0 1 6.421875 16.285156 L 7.8261719 14.880859 z "
    class="ColorScheme-Text"
    />  
</svg>

<svg xmlns="http://www.w3.org/2000/svg" viewBox="0 0 22 22">
<defs id="defs3051">
<style id="current-color-scheme" type="text/css">
.ColorScheme-Text{color:#dedede}
</style>
</defs>
<path d="M11.117 3a8 8 0 0 0-5.773 2.344 8 8 0 0 0 0 11.312 8 8 0 0 0 11.312 0 8 8 0 0 0 0-11.312A8 8 0 0 0 11.117 3m-.219 1a7 7 0 0 1 4.68 1.715l-1.404 1.404A8 5 45 0 0 8.75 4.377 7 7 0 0 1 10.898 4M7.871 5.307a7 4 45 0 1 5.594 2.521L11 10.293l-4.55-4.55a7 4 45 0 1 1.421-.436m8.42 1.109a7 7 0 0 1 1.336 6.81 8 5 45 0 0-2.75-5.396zm-10.55.031L10.292 11l-2.467 2.467a7 4 45 0 1-2.086-7.02m8.433 2.086a7 4 45 0 1 2.086 7.02L11.707 11zm-9.801.24a8 5 45 0 0 2.75 5.397l-1.414 1.414a7 7 0 0 1-1.336-6.81M11 11.707l4.55 4.55a7 4 45 0 1-7.015-2.085zm-3.174 3.174a8 5 45 0 0 5.424 2.742 7 7 0 0 1-6.828-1.338z" class="ColorScheme-Text" style="fill:currentColor;fill-opacity:1;stroke:none"/>
</svg>
